packages/web-icons/svgs/clock_2.svg

<svg viewBox="0 0 48 48" xmlns="http://www.w3.org/2000/svg" class="ridi_icon"><path d="M24 0C10.7 0 0 10.7 0 24s10.7 24 24 24 24-10.7 24-24S37.3 0 24 0zm8.8 33.4l-.7.7c-.6.6-1.6.6-2.2.1l-9-7.9c-.6-.6-1.1-1.7-1-2.5l.8-14.3c0-.9.7-1.5 1.6-1.5h1c.8 0 1.5.7 1.6 1.5l.7 11.9c.1.8.5 2 1.1 2.6l6.3 7.3c.4.6.4 1.5-.2 2.1z"/></svg>

<?xml version="1.0" encoding="UTF-8"?>
<svg width="48px" height="48px" viewBox="0 0 48 48" version="1.1" xmlns="http://www.w3.org/2000/svg">
  <!-- Generator: Sketch 41.2 (35397) - http://www.bohemiancoding.com/sketch -->
  <title>clock_2</title>
  <desc>Created with Sketch.</desc>
  <defs></defs>
  <g id="Page-1" stroke="none" stroke-width="1" fill="none" fill-rule="evenodd">
    <g id="clock_2" fill="#000000">
      <g id="레이어_1">
        <path d="M24,0 C10.7,0 0,10.7 0,24 C0,37.3 10.7,48 24,48 C37.3,48 48,37.3 48,24 C48,10.7 37.3,0 24,0 Z M32.8,33.4 L32.1,34.1 C31.5,34.7 30.5,34.7 29.9,34.2 L20.9,26.3 C20.3,25.7 19.8,24.6 19.9,23.8 L20.7,9.5 C20.7,8.6 21.4,8 22.3,8 L23.3,8 C24.1,8 24.8,8.7 24.9,9.5 L25.6,21.4 C25.7,22.2 26.1,23.4 26.7,24 L33,31.3 C33.4,31.9 33.4,32.8 32.8,33.4 Z" id="Shape"></path>
      </g>
    </g>
  </g>
</svg>
